IMB-X-Files/The-Ambassadors-Assets/65f43207d48584352641684e_IMG-2.svg

<svg fill="none" height="389" viewBox="0 0 610 389" width="610" xmlns="http://www.w3.org/2000/svg"><g stroke="#e3e5e8"><path d="m374.845 192c0 42.801-34.748 77.5-77.613 77.5s-77.613-34.699-77.613-77.5 34.748-77.5 77.613-77.5 77.613 34.699 77.613 77.5z" opacity=".2"/><path d="m348.503 192c0 28.442-23.091 51.5-51.576 51.5s-51.575-23.058-51.575-51.5 23.09-51.5 51.575-51.5 51.576 23.058 51.576 51.5z" opacity=".2"/><path d="m402.885 192c0 58.265-47.302 105.5-105.653 105.5-58.352 0-105.654-47.235-105.654-105.5s47.302-105.5 105.654-105.5c58.351 0 105.653 47.235 105.653 105.5z" opacity=".2"/><path d="m430.926 192c0 73.729-59.856 133.5-133.694 133.5s-133.694-59.771-133.694-133.5 59.856-133.5 133.694-133.5 133.694 59.771 133.694 133.5z" opacity=".2"/><path d="m456.964 192c0 88.089-71.514 159.5-159.732 159.5s-159.732-71.411-159.732-159.5 71.514-159.5 159.732-159.5 159.732 71.411 159.732 159.5z" opacity=".2"/></g><rect fill="#fff" height="72" rx="36" width="72" x="260.852" y="156"/><path d="m293.725 208c20.696 0 10.798-31.101 20.561-31.101.495 0 1.035.09 1.664.27v-1.079c-16.511-1.753-10.887 22.517-17.636 29.303l-.405-1.033-14.351-28.27h-5.804z" fill="#0e031e"/><rect fill="#0b8aff" height="48" rx="24" width="70" x="146" y="90"/><path d="m162.976 108.56h1.904v5.648l5.184-5.648h2.272l-4.448 4.848 4.72 6.592h-2.224l-3.744-5.264-1.76 1.888v3.376h-1.904zm10.738 11.44v-11.44h4.864c2.192 0 3.776 1.024 3.776 3.424s-1.584 3.44-3.776 3.44h-2.96v4.576zm1.904-9.824v3.616h2.88c1.28 0 1.952-.544 1.952-1.808 0-1.248-.672-1.808-1.952-1.808zm8.194-1.616h1.904v11.44h-1.904zm13.737 11.44h-1.856v-2.512h-5.232v-1.728l5.232-6.816h1.856v6.976h1.552v1.568h-1.552zm-1.856-8.752-3.584 4.672h3.584z" fill="#fff"/><rect fill="#b10bff" height="48" rx="24" width="66" x="321" y="18"/><path d="m337.976 36.56h1.904v5.648l5.184-5.648h2.272l-4.448 4.848 4.72 6.592h-2.224l-3.744-5.264-1.76 1.888v3.376h-1.904zm10.738 11.44v-11.44h4.864c2.192 0 3.776 1.024 3.776 3.424s-1.584 3.44-3.776 3.44h-2.96v4.576zm1.904-9.824v3.616h2.88c1.28 0 1.952-.544 1.952-1.808 0-1.248-.672-1.808-1.952-1.808zm8.194-1.616h1.904v11.44h-1.904zm9.449.384h1.488v11.056h-1.856v-8.016c-.656.64-1.392.64-2.32.64v-1.328c2 0 2.576-.992 2.688-2.352z" fill="#fff"/><rect fill="#ed5d3d" height="48" rx="24" width="70" x="286" y="326"/><path d="m302.976 344.56h1.904v5.648l5.184-5.648h2.272l-4.448 4.848 4.72 6.592h-2.224l-3.744-5.264-1.76 1.888v3.376h-1.904zm10.738 11.44v-11.44h4.864c2.192 0 3.776 1.024 3.776 3.424s-1.584 3.44-3.776 3.44h-2.96v4.576zm1.904-9.824v3.616h2.88c1.28 0 1.952-.544 1.952-1.808 0-1.248-.672-1.808-1.952-1.808zm8.194-1.616h1.904v11.44h-1.904zm11.321 3.984c2.128 0 3.584 1.536 3.584 3.696 0 2.464-1.776 4-4.08 4-2.704 0-4.176-1.6-4.24-3.504h1.84c.112.992.768 1.92 2.304 1.92 1.36 0 2.32-.832 2.32-2.432 0-1.504-.88-2.208-2.224-2.208-.864 0-1.648.304-2.176.96h-1.872l1.2-6.032h6.368v1.568h-4.976l-.592 2.96v.032c.576-.592 1.392-.96 2.544-.96z" fill="#fff"/><rect fill="#2eb67d" height="48" rx="24" width="70" x="111" y="238"/><path d="m127.976 256.56h1.904v5.648l5.184-5.648h2.272l-4.448 4.848 4.72 6.592h-2.224l-3.744-5.264-1.76 1.888v3.376h-1.904zm10.738 11.44v-11.44h4.864c2.192 0 3.776 1.024 3.776 3.424s-1.584 3.44-3.776 3.44h-2.96v4.576zm1.904-9.824v3.616h2.88c1.28 0 1.952-.544 1.952-1.808 0-1.248-.672-1.808-1.952-1.808zm8.194-1.616h1.904v11.44h-1.904zm8.633 3.728h-1.808c0-2.064 1.408-3.584 4.176-3.584 1.952 0 3.68 1.104 3.68 3.056 0 1.184-.608 1.92-1.664 2.368v.032c1.504.432 2.032 1.424 2.032 2.736 0 2.176-1.616 3.344-4.016 3.344-2.912 0-4.496-1.488-4.496-4.032h1.792c0 1.488.688 2.448 2.576 2.448 1.664 0 2.304-.64 2.304-1.808 0-1.52-1.104-1.856-2.24-1.856h-.992v-1.472h.928c1.152 0 1.92-.48 1.92-1.616 0-.912-.576-1.616-1.888-1.616-1.744 0-2.304.912-2.304 2z" fill="#fff"/><rect fill="#ff9d0b" height="48" rx="24" width="70" x="422" y="214"/><path d="m438.976 232.56h1.904v5.648l5.184-5.648h2.272l-4.448 4.848 4.72 6.592h-2.224l-3.744-5.264-1.76 1.888v3.376h-1.904zm10.738 11.44v-11.44h4.864c2.192 0 3.776 1.024 3.776 3.424s-1.584 3.44-3.776 3.44h-2.96v4.576zm1.904-9.824v3.616h2.88c1.28 0 1.952-.544 1.952-1.808 0-1.248-.672-1.808-1.952-1.808zm8.194-1.616h1.904v11.44h-1.904zm8.777 4.304h-1.792c0-2.384 1.28-4.16 4.112-4.16 2.048 0 3.664 1.216 3.664 3.328 0 3.52-4.72 4.112-5.632 6.368v.032h5.521v1.568h-7.937c0-1.952 1.168-3.376 2.864-4.448 2.032-1.344 3.328-1.872 3.328-3.44 0-.912-.432-1.824-1.856-1.824-1.648 0-2.272 1.056-2.272 2.576z" fill="#fff"/></svg>

<svg width="610" height="389" viewBox="0 0 610 389" fill="none" xmlns="http://www.w3.org/2000/svg">
    <path opacity="0.2"
        d="M374.845 192C374.845 234.801 340.097 269.5 297.232 269.5C254.367 269.5 219.619 234.801 219.619 192C219.619 149.199 254.367 114.5 297.232 114.5C340.097 114.5 374.845 149.199 374.845 192Z"
        stroke="#E3E5E8" />
    <path opacity="0.2"
        d="M348.503 192C348.503 220.442 325.412 243.5 296.927 243.5C268.442 243.5 245.352 220.442 245.352 192C245.352 163.558 268.442 140.5 296.927 140.5C325.412 140.5 348.503 163.558 348.503 192Z"
        stroke="#E3E5E8" />
    <path opacity="0.2"
        d="M402.885 192C402.885 250.265 355.583 297.5 297.232 297.5C238.88 297.5 191.578 250.265 191.578 192C191.578 133.735 238.88 86.5 297.232 86.5C355.583 86.5 402.885 133.735 402.885 192Z"
        stroke="#E3E5E8" />
    <path opacity="0.2"
        d="M430.926 192C430.926 265.729 371.07 325.5 297.232 325.5C223.394 325.5 163.538 265.729 163.538 192C163.538 118.271 223.394 58.5 297.232 58.5C371.07 58.5 430.926 118.271 430.926 192Z"
        stroke="#E3E5E8" />
    <path opacity="0.2"
        d="M456.964 192C456.964 280.089 385.45 351.5 297.232 351.5C209.014 351.5 137.5 280.089 137.5 192C137.5 103.911 209.014 32.5 297.232 32.5C385.45 32.5 456.964 103.911 456.964 192Z"
        stroke="#E3E5E8" />
    <rect x="260.852" y="156" width="72" height="72" rx="36" fill="white" />
    <path
        d="M293.725 208C314.421 208 304.523 176.899 314.286 176.899C314.781 176.899 315.321 176.989 315.95 177.169V176.09C299.439 174.337 305.063 198.607 298.314 205.393L297.909 204.36L283.558 176.09H277.754L293.725 208Z"
        fill="#0E031E" />
    <rect x="146" y="90" width="70" height="48" rx="24" fill="#0B8AFF" />
    <path
        d="M162.976 108.56H164.88V114.208L170.064 108.56H172.336L167.888 113.408L172.608 120H170.384L166.64 114.736L164.88 116.624V120H162.976V108.56ZM173.714 120V108.56H178.578C180.77 108.56 182.354 109.584 182.354 111.984C182.354 114.384 180.77 115.424 178.578 115.424H175.618V120H173.714ZM175.618 110.176V113.792H178.498C179.778 113.792 180.45 113.248 180.45 111.984C180.45 110.736 179.778 110.176 178.498 110.176H175.618ZM183.812 108.56H185.716V120H183.812V108.56ZM197.549 120H195.693V117.488H190.461V115.76L195.693 108.944H197.549V115.92H199.101V117.488H197.549V120ZM195.693 111.248L192.109 115.92H195.693V111.248Z"
        fill="white" />
    <rect x="321" y="18" width="66" height="48" rx="24" fill="#B10BFF" />
    <path
        d="M337.976 36.56H339.88V42.208L345.064 36.56H347.336L342.888 41.408L347.608 48H345.384L341.64 42.736L339.88 44.624V48H337.976V36.56ZM348.714 48V36.56H353.578C355.77 36.56 357.354 37.584 357.354 39.984C357.354 42.384 355.77 43.424 353.578 43.424H350.618V48H348.714ZM350.618 38.176V41.792H353.498C354.778 41.792 355.45 41.248 355.45 39.984C355.45 38.736 354.778 38.176 353.498 38.176H350.618ZM358.812 36.56H360.716V48H358.812V36.56ZM368.261 36.944H369.749V48H367.893V39.984C367.237 40.624 366.501 40.624 365.573 40.624V39.296C367.573 39.296 368.149 38.304 368.261 36.944Z"
        fill="white" />
    <rect x="286" y="326" width="70" height="48" rx="24" fill="#ED5D3D" />
    <path
        d="M302.976 344.56H304.88V350.208L310.064 344.56H312.336L307.888 349.408L312.608 356H310.384L306.64 350.736L304.88 352.624V356H302.976V344.56ZM313.714 356V344.56H318.578C320.77 344.56 322.354 345.584 322.354 347.984C322.354 350.384 320.77 351.424 318.578 351.424H315.618V356H313.714ZM315.618 346.176V349.792H318.498C319.778 349.792 320.45 349.248 320.45 347.984C320.45 346.736 319.778 346.176 318.498 346.176H315.618ZM323.812 344.56H325.716V356H323.812V344.56ZM335.133 348.544C337.261 348.544 338.717 350.08 338.717 352.24C338.717 354.704 336.941 356.24 334.637 356.24C331.933 356.24 330.461 354.64 330.397 352.736H332.237C332.349 353.728 333.005 354.656 334.541 354.656C335.901 354.656 336.861 353.824 336.861 352.224C336.861 350.72 335.981 350.016 334.637 350.016C333.773 350.016 332.989 350.32 332.461 350.976H330.589L331.789 344.944H338.157V346.512H333.181L332.589 349.472V349.504C333.165 348.912 333.981 348.544 335.133 348.544Z"
        fill="white" />
    <rect x="111" y="238" width="70" height="48" rx="24" fill="#2EB67D" />
    <path
        d="M127.976 256.56H129.88V262.208L135.064 256.56H137.336L132.888 261.408L137.608 268H135.384L131.64 262.736L129.88 264.624V268H127.976V256.56ZM138.714 268V256.56H143.578C145.77 256.56 147.354 257.584 147.354 259.984C147.354 262.384 145.77 263.424 143.578 263.424H140.618V268H138.714ZM140.618 258.176V261.792H143.498C144.778 261.792 145.45 261.248 145.45 259.984C145.45 258.736 144.778 258.176 143.498 258.176H140.618ZM148.812 256.56H150.716V268H148.812V256.56ZM157.445 260.288H155.637C155.637 258.224 157.045 256.704 159.813 256.704C161.765 256.704 163.493 257.808 163.493 259.76C163.493 260.944 162.885 261.68 161.829 262.128V262.16C163.333 262.592 163.861 263.584 163.861 264.896C163.861 267.072 162.245 268.24 159.845 268.24C156.933 268.24 155.349 266.752 155.349 264.208H157.141C157.141 265.696 157.829 266.656 159.717 266.656C161.381 266.656 162.021 266.016 162.021 264.848C162.021 263.328 160.917 262.992 159.781 262.992H158.789V261.52H159.717C160.869 261.52 161.637 261.04 161.637 259.904C161.637 258.992 161.061 258.288 159.749 258.288C158.005 258.288 157.445 259.2 157.445 260.288Z"
        fill="white" />
    <rect x="422" y="214" width="70" height="48" rx="24" fill="#FF9D0B" />
    <path
        d="M438.976 232.56H440.88V238.208L446.064 232.56H448.336L443.888 237.408L448.608 244H446.384L442.64 238.736L440.88 240.624V244H438.976V232.56ZM449.714 244V232.56H454.578C456.77 232.56 458.354 233.584 458.354 235.984C458.354 238.384 456.77 239.424 454.578 239.424H451.618V244H449.714ZM451.618 234.176V237.792H454.498C455.778 237.792 456.45 237.248 456.45 235.984C456.45 234.736 455.778 234.176 454.498 234.176H451.618ZM459.812 232.56H461.716V244H459.812V232.56ZM468.589 236.864H466.797C466.797 234.48 468.077 232.704 470.909 232.704C472.957 232.704 474.573 233.92 474.573 236.032C474.573 239.552 469.853 240.144 468.941 242.4V242.432H474.462V244H466.525C466.525 242.048 467.693 240.624 469.389 239.552C471.421 238.208 472.717 237.68 472.717 236.112C472.717 235.2 472.285 234.288 470.861 234.288C469.213 234.288 468.589 235.344 468.589 236.864Z"
        fill="white" />
</svg>
